packages/core/src/svgs/tokens/branded/ARIA20.svg

<svg width="24" height="24" viewBox="0 0 24 24" fill="none" xmlns="http://www.w3.org/2000/svg">
<path d="M5.90115 7.16728C6.63933 6.31183 7.78455 5.00794 10.7649 5.00794C13.6142 5.00794 14.0694 6.87753 14.0694 7.51224V7.72611C14.0833 8.45738 14.0971 9.63023 13.2898 10.0166C12.4206 10.4304 11.3581 10.7065 10.2682 10.9824C7.14296 11.7757 3.75558 12.6382 3.72109 17.1914C4.26747 17.1302 4.82029 17.2154 5.32303 17.4378C5.82577 17.6603 6.2604 18.0123 6.58246 18.4579C6.90454 18.9035 7.10252 19.4267 7.15614 19.9738C7.20978 20.521 7.11714 21.0726 6.8877 21.5723C7.62588 21.8413 8.54343 22 9.66098 22C10.7303 22 12.9173 21.4136 14.0694 19.2404C14.2764 20.1441 15.2285 22 17.519 22C19.8093 22 21.3271 21.3791 21.6583 21.0686V20.151H20.9822C20.4648 20.1441 18.8987 19.7855 18.8987 18.4264V7.58123C18.8987 5.73922 18.333 2.20008 12.6897 2C11.103 2 7.85355 2.51742 5.10088 4.75957L5.61829 7.17419H5.90115V7.16728ZM14.0694 11.6516V16.1911C14.0005 17.2121 13.3795 19.2404 11.4272 19.2404C9.47474 19.2404 9.16438 17.3639 9.25404 16.4256C9.18498 15.5081 9.52995 13.4936 11.4272 12.7554C12.3275 12.4363 13.2097 12.0679 14.0694 11.6516ZM4.06604 22C4.52346 22 4.96215 21.8183 5.2856 21.4949C5.60904 21.1713 5.79077 20.7326 5.79077 20.2752C5.79077 19.8178 5.60904 19.3792 5.2856 19.0556C4.96215 18.7322 4.52346 18.5505 4.06604 18.5505C3.60861 18.5505 3.16993 18.7322 2.84646 19.0556C2.52302 19.3792 2.34131 19.8178 2.34131 20.2752C2.34131 20.7326 2.52302 21.1713 2.84646 21.4949C3.16993 21.8183 3.60861 22 4.06604 22Z" fill="#B99247"/>
</svg>

<svg xmlns="http://www.w3.org/2000/svg" width="24" height="24" fill="none" viewBox="0 0 24 24">
    <path fill="#B99247" d="M5.901 7.167c.738-.855 1.884-2.16 4.864-2.16 2.85 0 3.304 1.87 3.304 2.505v.214c.014.731.028 1.904-.78 2.29-.868.414-1.93.69-3.02.966-3.126.794-6.513 1.656-6.548 6.21a3.105 3.105 0 0 1 3.167 4.38c.738.27 1.655.428 2.773.428 1.07 0 3.256-.586 4.408-2.76.207.904 1.16 2.76 3.45 2.76s3.808-.62 4.14-.931v-.918h-.677c-.517-.007-2.083-.366-2.083-1.725V7.581c0-1.842-.566-5.38-6.21-5.581-1.586 0-4.835.517-7.588 2.76l.517 2.414h.283zm8.168 4.485v4.54c-.069 1.02-.69 3.048-2.642 3.048s-2.263-1.876-2.173-2.814c-.069-.918.276-2.932 2.173-3.67q1.352-.48 2.642-1.104M4.066 22a1.725 1.725 0 1 0 0-3.45 1.725 1.725 0 0 0 0 3.45"/>
</svg>
